rider/src/main/resources/resharper/UnityFileType/FileUnity.svg

<svg width="16" height="16" viewBox="0 0 16 16" xmlns="http://www.w3.org/2000/svg">
  <path fill="#9aa7b0" d="M14 10.376V4.464L9 1.577v2.31l2.025 1.169L8 6.839 4.975 5.056 7 3.887v-2.31L2 4.464v5.912l2-1.179V6.803l3 1.768v3.542l-2.025-1.169-1.98 1.166L8 15l5.005-2.89-1.98-1.166L9 12.113V8.571l3-1.768v2.394l2 1.179Z"/>
</svg>

<svg xmlns="http://www.w3.org/2000/svg" width="16" height="16">
  <path fill="#f4f4f4" d="M7.732 16 8.268 16 14.989 12.119 15 12.125 15 3.887 8.268 0 7.732 0 1 3.887 1 12.125 1.011 12.119 7.732 16z"/>
  <path fill="#323232" d="M14 10.376 14 4.464 9 1.577 9 3.887 11.025 5.056 8 6.839 4.975 5.056 7 3.887 7 1.577 2 4.464 2 10.376 4 9.197 4 6.803 7 8.571 7 12.113 4.975 10.944 2.995 12.11 8 15 13.005 12.11 11.025 10.944 9 12.113 9 8.571 12 6.803 12 9.197 14 10.376z"/>
</svg>
